svg/free/restaurant.svg

<svg version="1.1" xmlns="http://www.w3.org/2000/svg" width="24" height="24" viewBox="0 0 24 24">
<title>restaurant</title>
<path d="M10.5 7.5h-2.25v-5.25h-1.5v5.25h-2.25v-5.25h-1.5v5.813c0 2.133 1.624 3.909 3.75 4.252v9.81h1.5v-9.81c2.126-0.343 3.75-2.119 3.75-4.252v-5.813h-1.5zM7.5 10.875c-1.304 0-2.415-0.784-2.828-1.875h5.656c-0.413 1.091-1.524 1.875-2.828 1.875z"></path>
<path d="M19.386 1.884c-3.139 0.496-5.511 3.183-5.511 6.424v0 7.818h4.875v6h1.5v-20.374zM18.75 14.625h-3.375v-6.318c-0-0.007-0-0.016-0-0.024 0-2.174 1.396-4.021 3.34-4.695l0.035-0.011z"></path>
</svg>

<svg xmlns="http://www.w3.org/2000/svg" width="24" height="24" viewBox="0 0 24 24"><path d="M10.5 7.5H8.25V2.25h-1.5V7.5H4.5V2.25H3v5.813c0 2.133 1.624 3.909 3.75 4.252v9.81h1.5v-9.81c2.126-.343 3.75-2.119 3.75-4.252V2.25h-1.5zm-3 3.375c-1.304 0-2.415-.784-2.828-1.875h5.656c-.413 1.091-1.524 1.875-2.828 1.875zM19.386 1.884c-3.139.496-5.511 3.183-5.511 6.424v7.818h4.875v6h1.5V1.752zm-.636 12.741h-3.375V8.307v-.024a4.97 4.97 0 013.34-4.695l.035-.011z"/></svg>
